X:228
T:score31
L:1/4
Q:1/4=96
M:4/4
I:linebreak $
K:D
 (F2 G A | A G F E | D D E F | F3/2 E/ E2) |$ (F2 G A | A G F E | D D E F | E3/2 D/ D2) |] %8
